X:1
T:Dublin City
M:3/4
L:1/8
K:F
 C/2 C3/2 C/2| F2 A3/2 c/2 B3/2 A/2| G2 D3/2 F/2 E3/2 D/2| C3/2- E/2 G3/2 E/2 F3/2 F/2|\
 F3- F/2C/2 C3/2 C/2| F2 A3/2 c/2| B3/2 A/2| G2 D3/2 F/2 E3/2 D/2|\
 C3/2- E/2 G3/2 E/2 F3/2 F/2| F3 AB c| d c2 BG A| B B2 G A/2A/2 B|\
 c2 GF ED| C3- C/2C/2 C3/2 C/2| F2 A3/2 c/2 B3/2 A/2| G2 D3/2 F/2 E3/2 D/2|\
 C3/2- E/2 G3/2 E/2 F3/2 F/2| F3||
